X: 132197
T: Miss Duff's
S: Fitzmaurice Collection
Z: BB
L: 1/8
M: 6/8
R: jig
Q: 1/4 = 170
K: G
c | BAB G2E | G2G GFG | A2A AGA | BGE E2c |
BAB G2E | G2G GFE | DED DFG | AFD D2 :|
B/c/| dBG c2A | dBG AGE | A2A AGA | BGE E2 B/c/|
dBG c2A | dBG AGE | ABc BAB | GED D2 :|
f | gdB ecA | dBG AGE | A2A AGA | BGE E2f |
gdB ecA | dBG AGE | ABc BAB | GED D2 :|
